icons/outline/share.svg

<svg width="24" height="24" viewBox="0 0 24 24" fill="none" xmlns="http://www.w3.org/2000/svg">
<path d="M7.21721 10.9071C6.83295 10.2169 6.096 9.75 5.25 9.75C4.00736 9.75 3 10.7574 3 12C3 13.2426 4.00736 14.25 5.25 14.25C6.096 14.25 6.83295 13.7831 7.21721 13.0929M7.21721 10.9071C7.39737 11.2307 7.5 11.6034 7.5 12C7.5 12.3966 7.39737 12.7693 7.21721 13.0929M7.21721 10.9071L16.7828 5.5929M7.21721 13.0929L16.7828 18.4071M16.7828 18.4071C16.6026 18.7307 16.5 19.1034 16.5 19.5C16.5 20.7426 17.5074 21.75 18.75 21.75C19.9926 21.75 21 20.7426 21 19.5C21 18.2574 19.9926 17.25 18.75 17.25C17.904 17.25 17.1671 17.7169 16.7828 18.4071ZM16.7828 5.5929C17.1671 6.28309 17.904 6.75 18.75 6.75C19.9926 6.75 21 5.74264 21 4.5C21 3.25736 19.9926 2.25 18.75 2.25C17.5074 2.25 16.5 3.25736 16.5 4.5C16.5 4.89664 16.6026 5.26931 16.7828 5.5929Z" stroke="#0F172A" stroke-width="1.5" stroke-linecap="round" stroke-linejoin="round"/>
</svg>

<svg xmlns="http://www.w3.org/2000/svg" fill="none" viewBox="0 0 24 24" stroke-width="1.5" stroke="currentColor" aria-hidden="true" data-slot="icon">
  <path stroke-linecap="round" stroke-linejoin="round" d="M7.217 10.907a2.25 2.25 0 1 0 0 2.186m0-2.186c.18.324.283.696.283 1.093s-.103.77-.283 1.093m0-2.186 9.566-5.314m-9.566 7.5 9.566 5.314m0 0a2.25 2.25 0 1 0 3.935 2.186 2.25 2.25 0 0 0-3.935-2.186Zm0-12.814a2.25 2.25 0 1 0 3.933-2.185 2.25 2.25 0 0 0-3.933 2.185Z"/>
</svg>
